SVG_Azure_Grouped/Networking/Application Gateway Configuration.svg

<?xml version="1.0" encoding="UTF-8" standalone="no"?>
<!DOCTYPE svg PUBLIC "-//W3C//DTD SVG 1.1//EN" "http://www.w3.org/Graphics/SVG/1.1/DTD/svg11.dtd">
<!-- Generated by Microsoft Visio, SVG Export Application Gateway Configuration.svg Page-1 -->
<svg xmlns="http://www.w3.org/2000/svg" xmlns:xlink="http://www.w3.org/1999/xlink" xmlns:ev="http://www.w3.org/2001/xml-events"
		width="1.73185in" height="1.61398in" viewBox="0 0 124.693 116.207" xml:space="preserve" color-interpolation-filters="sRGB"
		class="st7">
	<style type="text/css">
	<![CDATA[
		.st1 {fill:#a3a3a3;stroke:none;stroke-linecap:butt;stroke-width:34}
		.st2 {fill:url(#grad0-8);stroke:none;stroke-linecap:butt;stroke-width:34}
		.st3 {fill:#9cebff;stroke:none;stroke-linecap:butt;stroke-width:34}
		.st4 {fill:#005ba1;stroke:none;stroke-linecap:butt;stroke-width:34}
		.st5 {fill:#83b9f9;stroke:none;stroke-linecap:butt;stroke-width:34}
		.st6 {fill:#5ea0ef;stroke:none;stroke-linecap:butt;stroke-width:34}
		.st7 {fill:none;fill-rule:evenodd;font-size:12px;overflow:visible;stroke-linecap:square;stroke-miterlimit:3}
	]]>
	</style>

	<defs id="Patterns_And_Gradients">
		<linearGradient id="grad0-8" x1="0" y1="0" x2="1" y2="0" gradientTransform="rotate(-90 0.5 0.5)">
			<stop offset="0" stop-color="#0078d4" stop-opacity="1"/>
			<stop offset="0.155" stop-color="#1380da" stop-opacity="1"/>
			<stop offset="0.53" stop-color="#3c91e5" stop-opacity="1"/>
			<stop offset="0.82" stop-color="#559cec" stop-opacity="1"/>
			<stop offset="1" stop-color="#5ea0ef" stop-opacity="1"/>
		</linearGradient>
	</defs>
	<g>
		<title>Page-1</title>
		<g id="group17837-1" transform="translate(34,-34.0157)">
			<title>Application Gateway Configuration.17837</title>
			<g id="group17838-2">
				<title>MsPortalFx.base.images-78</title>
				<g id="shape17839-3" transform="translate(14.9036,-38.1699)">
					<title>Sheet.17839</title>
					<path d="M27.23 116.21 L24.4 116.21 L24.4 108.95 a0.333488 0.324243 -180 0 0 -0.0867068 1.13687E-13 L2.92 108.95
								 a0.310144 0.301546 -180 0 0 -0.0867068 1.42109E-14 L2.83 116.21 L0 116.21 L0 108.81 A2.82131 2.74309
								 0 0 1 2.92 106.19 L24.31 106.19 A2.82131 2.74309 0 0 1 27.23 108.81 L27.23 116.21 Z" class="st1"/>
				</g>
				<g id="shape17840-5">
					<title>Sheet.17840</title>
					<path d="M0 114.37 A1.89092 1.8385 -180 0 0 1.89 116.21 L54.8 116.21 A1.89092 1.8385 -180 0 0 56.69 114.37 L56.69
								 79.55 A1.89092 1.8385 -180 0 0 54.8 77.71 L1.89 77.71 A1.89092 1.8385 -180 0 0 -0 79.55 L0 114.37
								 Z" class="st2"/>
				</g>
				<g id="shape17841-9" transform="translate(0,-24.4025)">
					<title>Sheet.17841</title>
					<rect x="0" y="111.956" width="56.6929" height="4.25082" class="st3"/>
				</g>
				<g id="shape17842-11" transform="translate(20.3994,-18.5272)">
					<title>Sheet.17842</title>
					<path d="M0 110.33 L16.28 110.33 L16.28 115.3 a0.937101 0.911122 0 0 1 -0.937101 0.911122 L0.94 116.21 a0.937101
								 0.911122 0 0 1 -0.937101 -0.911122 L0.01 110.33 L0 110.33 Z" class="st4"/>
				</g>
				<g id="shape17843-13" transform="translate(0,-3.41428)">
					<title>Sheet.17843</title>
					<path d="M0 101.67 L0 111.38 L15.49 116.21 L18.39 107.4 L0 101.67 Z" class="st5"/>
				</g>
				<g id="shape17844-15" transform="translate(43.4924,-2.75282)">
					<title>Sheet.17844</title>
					<path d="M13.2 100.52 A9.0642 8.81292 -180 1 0 13.2 116.21 L13.2 100.52 Z" class="st6"/>
				</g>
			</g>
		</g>
	</g>
</svg>

<?xml version="1.0" encoding="UTF-8" standalone="no"?>
<!-- Generated by Microsoft Visio, SVG Export Application Gateway Configuration.svg Page-1 -->

<svg
   xmlns:dc="http://purl.org/dc/elements/1.1/"
   xmlns:cc="http://creativecommons.org/ns#"
   xmlns:rdf="http://www.w3.org/1999/02/22-rdf-syntax-ns#"
   xmlns:svg="http://www.w3.org/2000/svg"
   xmlns="http://www.w3.org/2000/svg"
   xmlns:sodipodi="http://sodipodi.sourceforge.net/DTD/sodipodi-0.dtd"
   xmlns:inkscape="http://www.inkscape.org/namespaces/inkscape"
   width="0.7873984in"
   height="0.66932625in"
   viewBox="0 0 56.692593 48.191671"
   xml:space="preserve"
   class="st7"
   version="1.1"
   id="svg56"
   sodipodi:docname="Application Gateway Configuration.svg"
   style="font-size:12px;overflow:visible;color-interpolation-filters:sRGB;fill:none;fill-rule:evenodd;stroke-linecap:square;stroke-miterlimit:3"
   inkscape:version="0.92.5 (2060ec1f9f, 2020-04-08)"><metadata
   id="metadata60"><rdf:RDF><cc:Work
       rdf:about=""><dc:format>image/svg+xml</dc:format><dc:type
         rdf:resource="http://purl.org/dc/dcmitype/StillImage" /></cc:Work></rdf:RDF></metadata><sodipodi:namedview
   pagecolor="#ffffff"
   bordercolor="#666666"
   borderopacity="1"
   objecttolerance="10"
   gridtolerance="10"
   guidetolerance="10"
   inkscape:pageopacity="0"
   inkscape:pageshadow="2"
   inkscape:window-width="640"
   inkscape:window-height="480"
   id="namedview58"
   showgrid="false"
   inkscape:zoom="1.5231498"
   inkscape:cx="37.795192"
   inkscape:cy="32.120941"
   inkscape:window-x="0"
   inkscape:window-y="0"
   inkscape:window-maximized="0"
   inkscape:current-layer="svg56" />
	<style
   type="text/css"
   id="style2">
	<![CDATA[
		.st1 {fill:#a3a3a3;stroke:none;stroke-linecap:butt;stroke-width:34}
		.st2 {fill:url(#grad0-8);stroke:none;stroke-linecap:butt;stroke-width:34}
		.st3 {fill:#9cebff;stroke:none;stroke-linecap:butt;stroke-width:34}
		.st4 {fill:#005ba1;stroke:none;stroke-linecap:butt;stroke-width:34}
		.st5 {fill:#83b9f9;stroke:none;stroke-linecap:butt;stroke-width:34}
		.st6 {fill:#5ea0ef;stroke:none;stroke-linecap:butt;stroke-width:34}
		.st7 {fill:none;fill-rule:evenodd;font-size:12px;overflow:visible;stroke-linecap:square;stroke-miterlimit:3}
	]]>
	</style>

	<defs
   id="Patterns_And_Gradients">
		<linearGradient
   id="grad0-8"
   x1="-5.1880175e-07"
   y1="94.297413"
   x2="46.71793"
   y2="94.297413"
   gradientTransform="scale(1.2134527,0.82409472)"
   gradientUnits="userSpaceOnUse">
			<stop
   offset="0"
   stop-color="#0078d4"
   stop-opacity="1"
   id="stop4" />
			<stop
   offset="0.155"
   stop-color="#1380da"
   stop-opacity="1"
   id="stop6" />
			<stop
   offset="0.53"
   stop-color="#3c91e5"
   stop-opacity="1"
   id="stop8" />
			<stop
   offset="0.82"
   stop-color="#559cec"
   stop-opacity="1"
   id="stop10" />
			<stop
   offset="1"
   stop-color="#5ea0ef"
   stop-opacity="1"
   id="stop12" />
		</linearGradient>
	</defs>
	<g
   id="g54"
   transform="translate(-34.000336,-34.002626)">
		<title
   id="title16">Page-1</title>
		<g
   id="group18267-1"
   transform="translate(34,-34.0157)">
			<title
   id="title18">Application Gateway Configuration.18267</title>
			<g
   id="group18268-2">
				<title
   id="title20">MsPortalFx.base.images-78</title>
				<g
   id="shape18269-3"
   transform="translate(14.9036,-38.1699)">
					<title
   id="title22">Sheet.18269</title>
					<path
   d="M 27.23,116.21 H 24.4 v -7.26 a 0.333488,0.324243 -180 0 0 -0.08671,0 l -21.39329,0 a 0.310144,0.301546 -180 0 0 -0.086707,0 L 2.83,116.21 H 0 v -7.4 a 2.82131,2.74309 0 0 1 2.92,-2.62 h 21.39 a 2.82131,2.74309 0 0 1 2.92,2.62 z"
   class="st1"
   id="path24"
   inkscape:connector-curvature="0"
   style="fill:#a3a3a3;stroke:none;stroke-width:34;stroke-linecap:butt" />
				</g>
				<g
   id="shape18270-5">
					<title
   id="title27">Sheet.18270</title>
					<path
   d="m 0,114.37 a 1.89092,1.8385 -180 0 0 1.89,1.84 H 54.8 a 1.89092,1.8385 -180 0 0 1.89,-1.84 V 79.55 A 1.89092,1.8385 -180 0 0 54.8,77.71 H 1.89 A 1.89092,1.8385 -180 0 0 0,79.55 Z"
   class="st2"
   id="path29"
   inkscape:connector-curvature="0"
   style="fill:url(#grad0-8);stroke:none;stroke-width:34;stroke-linecap:butt" />
				</g>
				<g
   id="shape18271-9"
   transform="translate(0,-24.4025)">
					<title
   id="title32">Sheet.18271</title>
					<rect
   x="0"
   y="111.956"
   width="56.692902"
   height="4.2508202"
   class="st3"
   id="rect34"
   style="fill:#9cebff;stroke:none;stroke-width:34;stroke-linecap:butt" />
				</g>
				<g
   id="shape18272-11"
   transform="translate(20.3994,-18.5272)">
					<title
   id="title37">Sheet.18272</title>
					<path
   d="m 0,110.33 h 16.28 v 4.97 a 0.937101,0.911122 0 0 1 -0.937101,0.91112 L 0.94,116.21 A 0.937101,0.911122 0 0 1 0.002899,115.29888 L 0.01,110.33 Z"
   class="st4"
   id="path39"
   inkscape:connector-curvature="0"
   style="fill:#005ba1;stroke:none;stroke-width:34;stroke-linecap:butt" />
				</g>
				<g
   id="shape18273-13"
   transform="translate(0,-3.41428)">
					<title
   id="title42">Sheet.18273</title>
					<path
   d="m 0,101.67 v 9.71 l 15.49,4.83 2.9,-8.81 z"
   class="st5"
   id="path44"
   inkscape:connector-curvature="0"
   style="fill:#83b9f9;stroke:none;stroke-width:34;stroke-linecap:butt" />
				</g>
				<g
   id="shape18274-15"
   transform="translate(43.4924,-2.75282)">
					<title
   id="title47">Sheet.18274</title>
					<path
   d="m 13.2,100.52 a 9.0642,8.81292 -180 1 0 0,15.69 z"
   class="st6"
   id="path49"
   inkscape:connector-curvature="0"
   style="fill:#5ea0ef;stroke:none;stroke-width:34;stroke-linecap:butt" />
				</g>
			</g>
		</g>
	</g>
</svg>
